docs/.gitbook/assets/icon-strike-through-16@light.svg

<svg width="32" height="32" viewBox="0 0 16 16" fill="none" xmlns="http://www.w3.org/2000/svg">
<rect x="0" y="0" width="16" height="16" fill="#fff"/>
<path fill-rule="evenodd" clip-rule="evenodd" d="M4.5698 2.70569C5.48357 2.1917 6.69715 2 8 2C9.34871 2 10.4925 2.26943 11.2997 2.53849C11.7041 2.67329 12.0268 2.80892 12.2518 2.91278C12.3644 2.96475 12.4529 3.00891 12.5152 3.04122C12.5463 3.05737 12.571 3.07059 12.5889 3.08035L12.6106 3.09235L12.6177 3.0963L12.6202 3.09774L12.6212 3.09832L12.6217 3.09858C12.6219 3.0987 12.6221 3.09882 12.25 3.75L12.6221 3.09882C12.9817 3.30433 13.1067 3.76247 12.9012 4.1221C12.6957 4.48162 12.2378 4.6066 11.8783 4.40139L11.8786 4.40158L11.8706 4.39719C11.8616 4.39231 11.8463 4.38403 11.8247 4.37285C11.7815 4.35047 11.7137 4.3165 11.6232 4.27472C11.442 4.19108 11.1709 4.07671 10.8253 3.96151C10.1325 3.73057 9.15129 3.5 8 3.5C6.80285 3.5 5.89143 3.6833 5.3052 4.01306C4.77372 4.31201 4.5 4.7281 4.5 5.375C4.5 6.10668 4.79396 6.4533 5.12037 6.65909C5.49208 6.89345 5.97216 6.97806 6.33607 7H6.75H14.25C14.6642 7 15 7.33579 15 7.75C15 8.16421 14.6642 8.5 14.25 8.5H6.77449L6.76039 8.50088C6.73272 8.50241 6.69498 8.50409 6.64852 8.50519C6.56015 8.50728 6.43906 8.5073 6.29481 8.5H1.75C1.33579 8.5 1 8.16421 1 7.75C1 7.33579 1.33579 7 1.75 7H3.40945C3.15515 6.56972 3 6.0327 3 5.375C3 4.1469 3.60128 3.25049 4.5698 2.70569ZM12.2459 10C12.6602 10 12.9959 10.3358 12.9959 10.75C12.9959 11.8383 12.3484 12.6788 11.4388 13.2101C10.5413 13.7343 9.33762 14 8 14C6.65129 14 5.5075 13.7306 4.70033 13.4615C4.29592 13.3267 3.97324 13.1911 3.74821 13.0872C3.6356 13.0352 3.54715 12.9911 3.48484 12.9588C3.45368 12.9426 3.42902 12.9294 3.41112 12.9197L3.38936 12.9076L3.38233 12.9037L3.37979 12.9023L3.37876 12.9017L3.37831 12.9014C3.3781 12.9013 3.3779 12.9012 3.75 12.25L3.3779 12.9012C3.01826 12.6957 2.89331 12.2375 3.09882 11.8779C3.30398 11.5189 3.76094 11.3937 4.1203 11.5978C4.12043 11.5979 4.12055 11.5979 4.12067 11.598C4.12078 11.5981 4.12088 11.5981 4.12098 11.5982C4.12122 11.5983 4.12146 11.5984 4.12169 11.5986L4.1214 11.5984L4.1294 11.6028C4.13836 11.6077 4.15374 11.616 4.17532 11.6272C4.21848 11.6495 4.28628 11.6835 4.37679 11.7253C4.55801 11.8089 4.82908 11.9233 5.17467 12.0385C5.8675 12.2694 6.84871 12.5 8 12.5C9.16238 12.5 10.0817 12.2657 10.6822 11.9149C11.2705 11.5712 11.4959 11.1617 11.4959 10.75C11.4959 10.3358 11.8317 10 12.2459 10Z" fill="#000"/>
</svg>

<svg xmlns="http://www.w3.org/2000/svg" width="32" height="32" fill="none" viewBox="0 0 16 16"><path fill="#fff" d="M0 0h16v16H0z"/><path fill="#000" fill-rule="evenodd" d="M4.57 2.706C5.484 2.192 6.697 2 8 2c1.349 0 2.492.27 3.3.538a9 9 0 0 1 1.215.503l.074.04.022.011.007.004.002.002h.001l-.371.652.372-.651a.75.75 0 0 1-.744 1.302l-.007-.004-.046-.024a8 8 0 0 0-1-.411A9 9 0 0 0 8 3.5c-1.197 0-2.109.183-2.695.513-.531.299-.805.715-.805 1.362 0 .732.294 1.078.62 1.284.372.234.852.32 1.216.341h7.914a.75.75 0 0 1 0 1.5H6.76l-.111.005a5 5 0 0 1-.354-.005H1.75a.75.75 0 0 1 0-1.5h1.66C3.154 6.57 3 6.033 3 5.375c0-1.228.601-2.125 1.57-2.67M12.246 10a.75.75 0 0 1 .75.75c0 1.088-.648 1.929-1.557 2.46-.898.524-2.101.79-3.439.79a10.5 10.5 0 0 1-3.3-.539 9 9 0 0 1-1.215-.502l-.074-.04-.022-.011-.007-.004-.002-.002h-.001l.371-.652-.372.651a.75.75 0 0 1 .742-1.303h.001l.008.005.046.024q.065.034.202.098c.181.084.452.198.798.314.692.23 1.674.461 2.825.461 1.162 0 2.082-.234 2.682-.585.588-.344.814-.753.814-1.165a.75.75 0 0 1 .75-.75" clip-rule="evenodd"/></svg>
